assets/offering/lagenhetsskyddet.svg

<svg width="56" height="56" viewBox="0 0 56 56" fill="none" xmlns="http://www.w3.org/2000/svg">
<mask id="mask0" mask-type="alpha" maskUnits="userSpaceOnUse" x="0" y="0" width="56" height="56">
<path fill-rule="evenodd" clip-rule="evenodd" d="M0 0H55.9997V55.9996H0V0Z" fill="white"/>
</mask>
<g mask="url(#mask0)">
<path fill-rule="evenodd" clip-rule="evenodd" d="M56 27.9996C56 43.4636 43.464 55.9996 28 55.9996C12.536 55.9996 0 43.4636 0 27.9996C0 12.5356 12.536 -0.000396729 28 -0.000396729C43.464 -0.000396729 56 12.5356 56 27.9996Z" fill="#FF8A80"/>
</g>
<path fill-rule="evenodd" clip-rule="evenodd" d="M34.1445 24.9625H37.1595V22.1505C37.1595 21.3195 36.4825 20.6445 35.6515 20.6445C34.8205 20.6445 34.1445 21.3195 34.1445 22.1505V24.9625ZM38.1595 25.9625H33.1445V22.1505C33.1445 20.7695 34.2695 19.6445 35.6515 19.6445C37.0345 19.6445 38.1595 20.7695 38.1595 22.1505V25.9625Z" fill="white"/>
<path fill-rule="evenodd" clip-rule="evenodd" d="M34.1445 35.3209H37.1595V32.5079C37.1595 31.6769 36.4825 31.0019 35.6515 31.0019C34.8205 31.0019 34.1445 31.6769 34.1445 32.5079V35.3209ZM38.1595 36.3209H33.1445V32.5079C33.1445 31.1269 34.2695 30.0019 35.6515 30.0019C37.0345 30.0019 38.1595 31.1269 38.1595 32.5079V36.3209Z" fill="white"/>
<path fill-rule="evenodd" clip-rule="evenodd" d="M17.3984 35.3209H20.4124V32.5079C20.4124 31.6769 19.7364 31.0019 18.9054 31.0019C18.0744 31.0019 17.3984 31.6769 17.3984 32.5079V35.3209ZM21.4124 36.3209H16.3984V32.5079C16.3984 31.1269 17.5234 30.0019 18.9054 30.0019C20.2874 30.0019 21.4124 31.1269 21.4124 32.5079V36.3209Z" fill="white"/>
<path fill-rule="evenodd" clip-rule="evenodd" d="M41.3516 17.5231L41.3086 12.0911L42.3086 12.0841L42.3516 17.5151L41.3516 17.5231Z" fill="white"/>
<mask id="mask1" mask-type="alpha" maskUnits="userSpaceOnUse" x="0" y="0" width="56" height="56">
<path fill-rule="evenodd" clip-rule="evenodd" d="M0 56H56V0H0V56Z" fill="white"/>
</mask>
<g mask="url(#mask1)">
<path fill-rule="evenodd" clip-rule="evenodd" d="M43.5156 39.5H44.5156V19.869H43.5156V39.5Z" fill="white"/>
<path fill-rule="evenodd" clip-rule="evenodd" d="M10.0547 39.534H11.0547V29.584H10.0547V39.534Z" fill="white"/>
<path fill-rule="evenodd" clip-rule="evenodd" d="M9.30466 31.6979L8.59766 30.9909L18.9367 20.6519L27.4177 29.1339L26.7107 29.8409L18.9367 22.0659L9.30466 31.6979Z" fill="white"/>
<path fill-rule="evenodd" clip-rule="evenodd" d="M26.7852 39.5H27.7852V19.869H26.7852V39.5Z" fill="white"/>
<path fill-rule="evenodd" clip-rule="evenodd" d="M26.0156 22.0055L25.3086 21.2985L35.6686 10.9375L45.9896 21.2575L45.2826 21.9645L35.6686 12.3515L26.0156 22.0055Z" fill="white"/>
</g>
</svg>

<svg width="56" height="56" viewBox="0 0 56 56" fill="none" xmlns="http://www.w3.org/2000/svg"><mask id="a" maskUnits="userSpaceOnUse" x="0" y="0" width="56" height="56"><path fill-rule="evenodd" clip-rule="evenodd" d="M0 0h56v56H0V0z" fill="#fff"/></mask><g mask="url(#a)"><path fill-rule="evenodd" clip-rule="evenodd" d="M56 28c0 15.464-12.536 28-28 28S0 43.464 0 28 12.536 0 28 0s28 12.536 28 28z" fill="#FF8A80"/></g><path fill-rule="evenodd" clip-rule="evenodd" d="M34.145 24.962h3.014v-2.811a1.509 1.509 0 00-3.014 0v2.811zm4.014 1h-5.014v-3.811a2.51 2.51 0 012.506-2.506 2.51 2.51 0 012.508 2.506v3.811zM34.145 35.32h3.014v-2.812a1.509 1.509 0 00-3.014 0v2.813zm4.014 1h-5.014v-3.812a2.51 2.51 0 012.506-2.506 2.51 2.51 0 012.508 2.506v3.813zM17.398 35.32h3.014v-2.812a1.508 1.508 0 00-3.014 0v2.813zm4.014 1h-5.014v-3.812a2.51 2.51 0 012.507-2.506 2.51 2.51 0 012.507 2.506v3.813zM41.352 17.523l-.043-5.432 1-.007.043 5.431-1 .008z" fill="#fff"/><mask id="b" maskUnits="userSpaceOnUse" x="0" y="0" width="56" height="56"><path fill-rule="evenodd" clip-rule="evenodd" d="M0 56h56V0H0v56z" fill="#fff"/></mask><g mask="url(#b)" fill-rule="evenodd" clip-rule="evenodd" fill="#fff"><path d="M43.516 39.5h1V19.869h-1V39.5zM10.055 39.534h1v-9.95h-1v9.95z"/><path d="M9.305 31.698l-.707-.707 10.339-10.34 8.48 8.483-.706.707-7.774-7.775-9.632 9.632z"/><path d="M26.785 39.5h1V19.869h-1V39.5z"/><path d="M26.016 22.006l-.707-.707 10.36-10.361 10.32 10.32-.706.707-9.614-9.614-9.653 9.655z"/></g></svg>
